X:3056
T:Tre ting fra Fyn
C:anon.
O:Denmark
F:http://abc.musicaviva.com/tunes/denmark/tre-ting-fra-fyn/tre-ting-fra-fyn-1.abc
M:2/4
L:1/16
Q:1/4=122
K:G
"G"d2dd B2d2|"G"g2B2 d4|"D7"c2A2 c4|"G"B2A2 G2 z2:|
"C"e2ee e2e2|"C"e2c2 e4|"C"e3e g2e2|"G"d2B2 "D7"d4|
"G"d2dd B2d2|"G"g2B2 d4|"D7"c2A2 c4|"G"B2A2 G2 z2|]
W:
W:
W:  From Musica Viva - http://www.musicaviva.com
W:  the Internet center for free sheet music downloads.

